X:45
T:Morison Hornpipe. JBu.45
O:England,South Yorkshire
S:Joshua Burnett’s MS,c1835,S.Yorkshire
M:C
L:1/8
Q:1/2=90
R:.hornpipe
Z:vmp.R.Greig.2011
K:A
ed|cdef dcBA|e2a2a2ed|cdef ecBA|BcE2E2ed|
cdef ecBA|fefg a2gf|ecBA fdBG|A2A2A2:|
|:BA|GBAc Bdce|d2B2B2BA|GBAc Bdcf|e2c2c2e2|
aece Acea|fdBA GBed|cecA BdBG|A2A2A2:|

